blog/2022/09-22-cloud-resources-they-have-a-lot-in-common/img/instance-kinds.svg

<?xml version="1.0" encoding="UTF-8" standalone="no"?><svg xmlns="http://www.w3.org/2000/svg" xmlns:xlink="http://www.w3.org/1999/xlink" contentScriptType="application/ecmascript" contentStyleType="text/css" height="402px" preserveAspectRatio="none" style="width:801px;height:402px;background:#00000000;" version="1.1" viewBox="0 0 801 402" width="801px" zoomAndPan="magnify"><defs/><g><!--MD5=[7f0ecf5f554433d3f2e1213379ac821c]
class resource--><rect codeLine="24" fill="#3D176E" height="39.7891" id="resource" rx="2.5" ry="2.5" style="stroke:#000D19;stroke-width:1.5;" width="113" x="7" y="181.5"/><ellipse cx="22" cy="201.3945" fill="#E98DF7" rx="11" ry="11" style="stroke:#000D19;stroke-width:1.0;"/><path d="M24.9688,207.0352 Q24.3906,207.332 23.75,207.4727 Q23.1094,207.6289 22.4063,207.6289 Q19.9063,207.6289 18.5781,205.9883 Q17.2656,204.332 17.2656,201.207 Q17.2656,198.082 18.5781,196.4258 Q19.9063,194.7695 22.4063,194.7695 Q23.1094,194.7695 23.75,194.9258 Q24.4063,195.082 24.9688,195.3789 L24.9688,198.0977 Q24.3438,197.5195 23.75,197.2539 Q23.1563,196.9727 22.5313,196.9727 Q21.1875,196.9727 20.5,198.0508 Q19.8125,199.1133 19.8125,201.207 Q19.8125,203.3008 20.5,204.3789 Q21.1875,205.4414 22.5313,205.4414 Q23.1563,205.4414 23.75,205.1758 Q24.3438,204.8945 24.9688,204.3164 L24.9688,207.0352 Z " fill="#000000"/><text fill="#D9B8FF" font-family="Helvetica" font-size="17" lengthAdjust="spacing" textLength="71" x="41" y="207.2798">resource</text><!--MD5=[a78a17b35dcf435f0eee6761f15e83c6]
class aws_ec2_instance--><rect codeLine="26" fill="#3D176E" height="70.5938" id="aws_ec2_instance" rx="2.5" ry="2.5" style="stroke:#000D19;stroke-width:1.5;" width="192" x="592.5" y="7"/><ellipse cx="607.5" cy="26.8945" fill="#E98DF7" rx="11" ry="11" style="stroke:#000D19;stroke-width:1.0;"/><path d="M610.4688,32.5352 Q609.8906,32.832 609.25,32.9727 Q608.6094,33.1289 607.9063,33.1289 Q605.4063,33.1289 604.0781,31.4883 Q602.7656,29.832 602.7656,26.707 Q602.7656,23.582 604.0781,21.9258 Q605.4063,20.2695 607.9063,20.2695 Q608.6094,20.2695 609.25,20.4258 Q609.9063,20.582 610.4688,20.8789 L610.4688,23.5977 Q609.8438,23.0195 609.25,22.7539 Q608.6563,22.4727 608.0313,22.4727 Q606.6875,22.4727 606,23.5508 Q605.3125,24.6133 605.3125,26.707 Q605.3125,28.8008 606,29.8789 Q606.6875,30.9414 608.0313,30.9414 Q608.6563,30.9414 609.25,30.6758 Q609.8438,30.3945 610.4688,29.8164 L610.4688,32.5352 Z " fill="#000000"/><text fill="#D9B8FF" font-family="Helvetica" font-size="17" lengthAdjust="spacing" textLength="150" x="626.5" y="32.7798">aws_ec2_instance</text><line style="stroke:#000D19;stroke-width:1.5;" x1="593.5" x2="783.5" y1="46.7891" y2="46.7891"/><text fill="#D9B8FF" font-family="sans-serif" font-size="11" lengthAdjust="spacing" textLength="146" x="603.5" y="65.9995">Props omitted for brevity.</text><!--MD5=[6cacedcd4c2effd6f4e2b3539316018b]
class gcp_instance--><rect codeLine="29" fill="#3D176E" height="70.5938" id="gcp_instance" rx="2.5" ry="2.5" style="stroke:#000D19;stroke-width:1.5;" width="168" x="604.5" y="113"/><ellipse cx="628.05" cy="132.8945" fill="#E98DF7" rx="11" ry="11" style="stroke:#000D19;stroke-width:1.0;"/><path d="M631.0188,138.5352 Q630.4406,138.832 629.8,138.9727 Q629.1594,139.1289 628.4563,139.1289 Q625.9563,139.1289 624.6281,137.4883 Q623.3156,135.832 623.3156,132.707 Q623.3156,129.582 624.6281,127.9258 Q625.9563,126.2695 628.4563,126.2695 Q629.1594,126.2695 629.8,126.4258 Q630.4563,126.582 631.0188,126.8789 L631.0188,129.5977 Q630.3938,129.0195 629.8,128.7539 Q629.2063,128.4727 628.5813,128.4727 Q627.2375,128.4727 626.55,129.5508 Q625.8625,130.6133 625.8625,132.707 Q625.8625,134.8008 626.55,135.8789 Q627.2375,136.9414 628.5813,136.9414 Q629.2063,136.9414 629.8,136.6758 Q630.3938,136.3945 631.0188,135.8164 L631.0188,138.5352 Z " fill="#000000"/><text fill="#D9B8FF" font-family="Helvetica" font-size="17" lengthAdjust="spacing" textLength="107" x="648.95" y="138.7798">gcp_instance</text><line style="stroke:#000D19;stroke-width:1.5;" x1="605.5" x2="771.5" y1="152.7891" y2="152.7891"/><text fill="#D9B8FF" font-family="sans-serif" font-size="11" lengthAdjust="spacing" textLength="146" x="615.5" y="171.9995">Props omitted for brevity.</text><!--MD5=[daa521cb83071a0d0838da839fa58563]
class kubernetes_node--><rect codeLine="33" fill="#3D176E" height="70.5938" id="kubernetes_node" rx="2.5" ry="2.5" style="stroke:#000D19;stroke-width:1.5;" width="186" x="595.5" y="219"/><ellipse cx="610.5" cy="238.8945" fill="#E98DF7" rx="11" ry="11" style="stroke:#000D19;stroke-width:1.0;"/><path d="M613.4688,244.5352 Q612.8906,244.832 612.25,244.9727 Q611.6094,245.1289 610.9063,245.1289 Q608.4063,245.1289 607.0781,243.4883 Q605.7656,241.832 605.7656,238.707 Q605.7656,235.582 607.0781,233.9258 Q608.4063,232.2695 610.9063,232.2695 Q611.6094,232.2695 612.25,232.4258 Q612.9063,232.582 613.4688,232.8789 L613.4688,235.5977 Q612.8438,235.0195 612.25,234.7539 Q611.6563,234.4727 611.0313,234.4727 Q609.6875,234.4727 609,235.5508 Q608.3125,236.6133 608.3125,238.707 Q608.3125,240.8008 609,241.8789 Q609.6875,242.9414 611.0313,242.9414 Q611.6563,242.9414 612.25,242.6758 Q612.8438,242.3945 613.4688,241.8164 L613.4688,244.5352 Z " fill="#000000"/><text fill="#D9B8FF" font-family="Helvetica" font-size="17" lengthAdjust="spacing" textLength="144" x="629.5" y="244.7798">kubernetes_node</text><line style="stroke:#000D19;stroke-width:1.5;" x1="596.5" x2="780.5" y1="258.7891" y2="258.7891"/><text fill="#D9B8FF" font-family="sans-serif" font-size="11" lengthAdjust="spacing" textLength="146" x="606.5" y="277.9995">Props omitted for brevity.</text><!--MD5=[230a9b3152d0e43428e5ec47aa3382f3]
class instance--><rect codeLine="37" fill="#3D176E" height="139.0078" id="instance" rx="2.5" ry="2.5" style="stroke:#000D19;stroke-width:1.5;" width="221" x="241" y="132"/><ellipse cx="307.25" cy="151.8945" fill="#E98DF7" rx="11" ry="11" style="stroke:#000D19;stroke-width:1.0;"/><path d="M310.2188,157.5352 Q309.6406,157.832 309,157.9727 Q308.3594,158.1289 307.6563,158.1289 Q305.1563,158.1289 303.8281,156.4883 Q302.5156,154.832 302.5156,151.707 Q302.5156,148.582 303.8281,146.9258 Q305.1563,145.2695 307.6563,145.2695 Q308.3594,145.2695 309,145.4258 Q309.6563,145.582 310.2188,145.8789 L310.2188,148.5977 Q309.5938,148.0195 309,147.7539 Q308.4063,147.4727 307.7813,147.4727 Q306.4375,147.4727 305.75,148.5508 Q305.0625,149.6133 305.0625,151.707 Q305.0625,153.8008 305.75,154.8789 Q306.4375,155.9414 307.7813,155.9414 Q308.4063,155.9414 309,155.6758 Q309.5938,155.3945 310.2188,154.8164 L310.2188,157.5352 Z " fill="#000000"/><text fill="#D9B8FF" font-family="Helvetica" font-size="17" lengthAdjust="spacing" textLength="70" x="332.75" y="157.7798">instance</text><line style="stroke:#000D19;stroke-width:1.5;" x1="242" x2="461" y1="171.7891" y2="171.7891"/><text fill="#D9B8FF" font-family="sans-serif" font-size="11" font-weight="bold" lengthAdjust="spacing" textLength="96" x="252" y="190.9995">instance_cores</text><text fill="#D9B8FF" font-family="sans-serif" font-size="11" lengthAdjust="spacing" textLength="46" x="348" y="190.9995">: double</text><text fill="#D9B8FF" font-family="sans-serif" font-size="11" font-weight="bold" lengthAdjust="spacing" textLength="111" x="252" y="213.8042">instance_memory</text><text fill="#D9B8FF" font-family="sans-serif" font-size="11" lengthAdjust="spacing" textLength="46" x="363" y="213.8042">: double</text><text fill="#D9B8FF" font-family="sans-serif" font-size="11" font-weight="bold" lengthAdjust="spacing" textLength="89" x="252" y="236.6089">instance_type</text><text fill="#D9B8FF" font-family="sans-serif" font-size="11" lengthAdjust="spacing" textLength="41" x="341" y="236.6089">: string</text><text fill="#D9B8FF" font-family="sans-serif" font-size="11" font-weight="bold" lengthAdjust="spacing" textLength="101" x="252" y="259.4136">instance_status</text><text fill="#D9B8FF" font-family="sans-serif" font-size="11" lengthAdjust="spacing" textLength="98" x="353" y="259.4136">: instance_status</text><!--MD5=[9f976896e726bb06dda64d66586df82b]
class digitalocean_droplet--><rect codeLine="43" fill="#3D176E" height="70.5938" id="digitalocean_droplet" rx="2.5" ry="2.5" style="stroke:#000D19;stroke-width:1.5;" width="211" x="583" y="325"/><ellipse cx="598" cy="344.8945" fill="#E98DF7" rx="11" ry="11" style="stroke:#000D19;stroke-width:1.0;"/><path d="M600.9688,350.5352 Q600.3906,350.832 599.75,350.9727 Q599.1094,351.1289 598.4063,351.1289 Q595.9063,351.1289 594.5781,349.4883 Q593.2656,347.832 593.2656,344.707 Q593.2656,341.582 594.5781,339.9258 Q595.9063,338.2695 598.4063,338.2695 Q599.1094,338.2695 599.75,338.4258 Q600.4063,338.582 600.9688,338.8789 L600.9688,341.5977 Q600.3438,341.0195 599.75,340.7539 Q599.1563,340.4727 598.5313,340.4727 Q597.1875,340.4727 596.5,341.5508 Q595.8125,342.6133 595.8125,344.707 Q595.8125,346.8008 596.5,347.8789 Q597.1875,348.9414 598.5313,348.9414 Q599.1563,348.9414 599.75,348.6758 Q600.3438,348.3945 600.9688,347.8164 L600.9688,350.5352 Z " fill="#000000"/><text fill="#D9B8FF" font-family="Helvetica" font-size="17" lengthAdjust="spacing" textLength="169" x="617" y="350.7798">digitalocean_droplet</text><line style="stroke:#000D19;stroke-width:1.5;" x1="584" x2="793" y1="364.7891" y2="364.7891"/><text fill="#D9B8FF" font-family="sans-serif" font-size="11" lengthAdjust="spacing" textLength="146" x="594" y="383.9995">Props omitted for brevity.</text><!--MD5=[93c317f3510cfca52c24740b5ca4bf14]
reverse link instance to aws_ec2_instance--><path codeLine="46" d="M480.37,140.81 C525,119.63 573.61,96.56 612.52,78.09 " fill="none" id="instance-backto-aws_ec2_instance" style="stroke:#FFAF37;stroke-width:2.0;"/><polygon fill="none" points="483.26,147.19,462.19,149.44,477.26,134.54,483.26,147.19" style="stroke:#FFAF37;stroke-width:2.0;"/><!--MD5=[f04006243f1a8eceb6c84a213e7d8eed]
reverse link instance to gcp_instance--><path codeLine="47" d="M482.06,181 C523.17,174.5 567.49,167.49 604.41,161.65 " fill="none" id="instance-backto-gcp_instance" style="stroke:#FFAF37;stroke-width:2.0;"/><polygon fill="none" points="483.04,187.93,462.19,184.15,480.85,174.11,483.04,187.93" style="stroke:#FFAF37;stroke-width:2.0;"/><!--MD5=[8f4ca4138664a50db82847caf8c5420e]
reverse link instance to kubernetes_node--><path codeLine="48" d="M481.95,221.98 C519.74,227.96 560.25,234.37 595.23,239.9 " fill="none" id="instance-backto-kubernetes_node" style="stroke:#FFAF37;stroke-width:2.0;"/><polygon fill="none" points="480.85,228.89,462.19,218.85,483.04,215.07,480.85,228.89" style="stroke:#FFAF37;stroke-width:2.0;"/><!--MD5=[d8c8fec3d897e15ddf46b16cbe65a677]
reverse link resource to instance--><path codeLine="49" d="M140.66,201.5 C171.41,201.5 207.47,201.5 240.94,201.5 " fill="none" id="resource-backto-instance" style="stroke:#FFAF37;stroke-width:2.0;"/><polygon fill="none" points="140.32,208.5,120.32,201.5,140.32,194.5,140.32,208.5" style="stroke:#FFAF37;stroke-width:2.0;"/><!--MD5=[80ef0f6b4c61396eee9cfb0155bb5255]
reverse link instance to digitalocean_droplet--><path codeLine="50" d="M480.37,262.19 C525,283.37 573.61,306.44 612.52,324.91 " fill="none" id="instance-backto-digitalocean_droplet" style="stroke:#FFAF37;stroke-width:2.0;"/><polygon fill="none" points="477.26,268.46,462.19,253.56,483.26,255.81,477.26,268.46" style="stroke:#FFAF37;stroke-width:2.0;"/><!--MD5=[c6c5639629f2e326582d354b1a4797a4]
@startuml
left to right direction
hide empty members
skinparam ArrowColor #ffaf37
skinparam ArrowFontColor #ffaf37
skinparam ArrowFontName Helvetica
skinparam ArrowThickness 2
skinparam BackgroundColor transparent
skinparam ClassAttributeFontColor #d9b8ff
skinparam ClassBackgroundColor #3d176e
skinparam ClassBorderColor #000d19
skinparam ClassFontColor #d9b8ff
skinparam ClassFontName Helvetica
skinparam ClassFontSize 17
skinparam NoteBackgroundColor #d9b8ff
skinparam NoteBorderColor #000d19
skinparam NoteFontColor #3d176e
skinparam NoteFontName Helvetica
skinparam Padding 5
skinparam RoundCorner 5
skinparam Shadowing false
skinparam stereotypeCBackgroundColor #e98df7
skinparam stereotypeIBackgroundColor #e98df7

class resource {
}
class aws_ec2_instance {
Props omitted for brevity.
}
class gcp_instance {
Props omitted for brevity.

}
class kubernetes_node {
Props omitted for brevity.

}
class instance {
**instance_cores**: double
**instance_memory**: double
**instance_type**: string
**instance_status**: instance_status
}
class digitalocean_droplet {
Props omitted for brevity.
}
instance <|- - - aws_ec2_instance
instance <|- - - gcp_instance
instance <|- - - kubernetes_node
resource <|- - - instance
instance <|- - - digitalocean_droplet
@enduml

PlantUML version 1.2021.16(Wed Dec 08 17:25:22 UTC 2021)
(GPL source distribution)
Java Runtime: OpenJDK Runtime Environment
JVM: OpenJDK 64-Bit Server VM
Default Encoding: UTF-8
Language: en
Country: null
--></g></svg>

<svg xmlns="http://www.w3.org/2000/svg" width="801" height="402" preserveAspectRatio="none" style="width:801px;height:402px;background:#00000000"><rect width="113" height="39.789" x="7" y="181.5" fill="#3D176E" rx="2.5" ry="2.5" style="stroke:#000d19;stroke-width:1.5"/><circle cx="22" cy="201.394" r="11" fill="#E98DF7" style="stroke:#000d19;stroke-width:1"/><path d="M24.969 207.035q-.578.297-1.219.438-.64.156-1.344.156-2.5 0-3.828-1.64-1.312-1.657-1.312-4.782t1.312-4.781q1.328-1.656 3.828-1.656.703 0 1.344.156.656.156 1.219.453v2.719q-.625-.579-1.219-.844-.594-.281-1.219-.281-1.343 0-2.031 1.078-.688 1.062-.688 3.156 0 2.094.688 3.172.688 1.062 2.031 1.062.625 0 1.219-.265.594-.281 1.219-.86v2.72Z"/><text x="41" y="207.28" fill="#D9B8FF" font-family="Helvetica" font-size="17" textLength="71">resource</text><rect width="192" height="70.594" x="592.5" y="7" fill="#3D176E" rx="2.5" ry="2.5" style="stroke:#000d19;stroke-width:1.5"/><circle cx="607.5" cy="26.895" r="11" fill="#E98DF7" style="stroke:#000d19;stroke-width:1"/><path d="M610.469 32.535q-.578.297-1.219.438-.64.156-1.344.156-2.5 0-3.828-1.64-1.312-1.657-1.312-4.782t1.312-4.781q1.328-1.656 3.828-1.656.703 0 1.344.156.656.156 1.219.453v2.719q-.625-.578-1.219-.844-.594-.281-1.219-.281-1.343 0-2.031 1.078-.688 1.062-.688 3.156 0 2.094.688 3.172.688 1.062 2.031 1.062.625 0 1.219-.265.594-.281 1.219-.86v2.72Z"/><text x="626.5" y="32.78" fill="#D9B8FF" font-family="Helvetica" font-size="17" textLength="150">aws_ec2_instance</text><path d="M593.5 46.789h190" style="stroke:#000d19;stroke-width:1.5"/><text x="603.5" y="65.999" fill="#D9B8FF" font-family="sans-serif" font-size="11" textLength="146">Props omitted for brevity.</text><rect width="168" height="70.594" x="604.5" y="113" fill="#3D176E" rx="2.5" ry="2.5" style="stroke:#000d19;stroke-width:1.5"/><circle cx="628.05" cy="132.894" r="11" fill="#E98DF7" style="stroke:#000d19;stroke-width:1"/><path d="M631.019 138.535q-.578.297-1.219.438-.64.156-1.344.156-2.5 0-3.828-1.64-1.312-1.657-1.312-4.782t1.312-4.781q1.328-1.657 3.828-1.657.703 0 1.344.157.656.156 1.219.453v2.719q-.625-.579-1.219-.844-.594-.281-1.219-.281-1.344 0-2.031 1.078-.688 1.062-.688 3.156 0 2.094.688 3.172.688 1.062 2.031 1.062.625 0 1.219-.265.594-.281 1.219-.86v2.72Z"/><text x="648.95" y="138.78" fill="#D9B8FF" font-family="Helvetica" font-size="17" textLength="107">gcp_instance</text><path d="M605.5 152.789h166" style="stroke:#000d19;stroke-width:1.5"/><text x="615.5" y="172" fill="#D9B8FF" font-family="sans-serif" font-size="11" textLength="146">Props omitted for brevity.</text><rect width="186" height="70.594" x="595.5" y="219" fill="#3D176E" rx="2.5" ry="2.5" style="stroke:#000d19;stroke-width:1.5"/><circle cx="610.5" cy="238.894" r="11" fill="#E98DF7" style="stroke:#000d19;stroke-width:1"/><path d="M613.469 244.535q-.578.297-1.219.438-.64.156-1.344.156-2.5 0-3.828-1.64-1.312-1.657-1.312-4.782t1.312-4.781q1.328-1.656 3.828-1.656.703 0 1.344.156.656.156 1.219.453v2.719q-.625-.579-1.219-.844-.594-.281-1.219-.281-1.343 0-2.031 1.078-.688 1.062-.688 3.156 0 2.094.688 3.172.688 1.062 2.031 1.062.625 0 1.219-.265.594-.281 1.219-.86v2.72Z"/><text x="629.5" y="244.78" fill="#D9B8FF" font-family="Helvetica" font-size="17" textLength="144">kubernetes_node</text><path d="M596.5 258.789h184" style="stroke:#000d19;stroke-width:1.5"/><text x="606.5" y="278" fill="#D9B8FF" font-family="sans-serif" font-size="11" textLength="146">Props omitted for brevity.</text><rect width="221" height="139.008" x="241" y="132" fill="#3D176E" rx="2.5" ry="2.5" style="stroke:#000d19;stroke-width:1.5"/><circle cx="307.25" cy="151.894" r="11" fill="#E98DF7" style="stroke:#000d19;stroke-width:1"/><path d="M310.219 157.535q-.578.297-1.219.438-.64.156-1.344.156-2.5 0-3.828-1.64-1.312-1.657-1.312-4.782t1.312-4.781q1.328-1.656 3.828-1.656.703 0 1.344.156.656.156 1.219.453v2.719q-.625-.579-1.219-.844-.594-.281-1.219-.281-1.344 0-2.031 1.078-.688 1.062-.688 3.156 0 2.094.688 3.172.688 1.062 2.031 1.062.625 0 1.219-.265.594-.281 1.219-.86v2.72Z"/><text x="332.75" y="157.78" fill="#D9B8FF" font-family="Helvetica" font-size="17" textLength="70">instance</text><path d="M242 171.789h219" style="stroke:#000d19;stroke-width:1.5"/><text x="252" y="191" fill="#D9B8FF" font-family="sans-serif" font-size="11" font-weight="bold" textLength="96">instance_cores</text><text x="348" y="191" fill="#D9B8FF" font-family="sans-serif" font-size="11" textLength="46">: double</text><text x="252" y="213.804" fill="#D9B8FF" font-family="sans-serif" font-size="11" font-weight="bold" textLength="111">instance_memory</text><text x="363" y="213.804" fill="#D9B8FF" font-family="sans-serif" font-size="11" textLength="46">: double</text><text x="252" y="236.609" fill="#D9B8FF" font-family="sans-serif" font-size="11" font-weight="bold" textLength="89">instance_type</text><text x="341" y="236.609" fill="#D9B8FF" font-family="sans-serif" font-size="11" textLength="41">: string</text><text x="252" y="259.414" fill="#D9B8FF" font-family="sans-serif" font-size="11" font-weight="bold" textLength="101">instance_status</text><text x="353" y="259.414" fill="#D9B8FF" font-family="sans-serif" font-size="11" textLength="98">: instance_status</text><rect width="211" height="70.594" x="583" y="325" fill="#3D176E" rx="2.5" ry="2.5" style="stroke:#000d19;stroke-width:1.5"/><circle cx="598" cy="344.894" r="11" fill="#E98DF7" style="stroke:#000d19;stroke-width:1"/><path d="M600.969 350.535q-.578.297-1.219.438-.64.156-1.344.156-2.5 0-3.828-1.64-1.312-1.657-1.312-4.782t1.312-4.781q1.328-1.656 3.828-1.656.703 0 1.344.156.656.156 1.219.453v2.719q-.625-.579-1.219-.844-.594-.281-1.219-.281-1.343 0-2.031 1.078-.688 1.062-.688 3.156 0 2.094.688 3.172.688 1.062 2.031 1.062.625 0 1.219-.265.594-.281 1.219-.86v2.72Z"/><text x="617" y="350.78" fill="#D9B8FF" font-family="Helvetica" font-size="17" textLength="169">digitalocean_droplet</text><path d="M584 364.789h209" style="stroke:#000d19;stroke-width:1.5"/><text x="594" y="384" fill="#D9B8FF" font-family="sans-serif" font-size="11" textLength="146">Props omitted for brevity.</text><path fill="none" d="M480.37 140.81c44.63-21.18 93.24-44.25 132.15-62.72m-129.26 69.1-21.07 2.25 15.07-14.9 6 12.65zm-1.2 33.81c41.11-6.5 85.43-13.51 122.35-19.35m-121.37 26.28-20.85-3.78 18.66-10.04 2.19 13.82zm-1.09 34.05c37.79 5.98 78.3 12.39 113.28 17.92m-114.38-11.01-18.66-10.04 20.85-3.78-2.19 13.82zM140.66 201.5h100.28m-100.62 7-20-7 20-7v14zm340.05 53.69c44.63 21.18 93.24 44.25 132.15 62.72m-135.26-56.45-15.07-14.9 21.07 2.25-6 12.65z" style="stroke:#ffaf37;stroke-width:2"/></svg>
